svgs/sharp-light/money-bill.svg

<svg xmlns="http://www.w3.org/2000/svg" viewBox="0 0 576 512"><!--! Font Awesome Pro 6.6.0 by @fontawesome - https://fontawesome.com License - https://fontawesome.com/license (Commercial License) Copyright 2024 Fonticons, Inc. --><path d="M480 96c0 35.3 28.7 64 64 64l0-64-64 0zm-32 0L128 96c0 53-43 96-96 96l0 128c53 0 96 43 96 96l320 0c0-53 43-96 96-96l0-128c-53 0-96-43-96-96zM32 416l64 0c0-35.3-28.7-64-64-64l0 64zm512-64c-35.3 0-64 28.7-64 64l64 0 0-64zM32 96l0 64c35.3 0 64-28.7 64-64L32 96zM0 64l32 0 512 0 32 0 0 32 0 320 0 32-32 0L32 448 0 448l0-32L0 96 0 64zM352 256a64 64 0 1 0 -128 0 64 64 0 1 0 128 0zm-160 0a96 96 0 1 1 192 0 96 96 0 1 1 -192 0z"/></svg>

<svg xmlns="http://www.w3.org/2000/svg" viewBox="0 0 576 512"><!--! Font Awesome Pro 6.5.2 by @fontawesome - https://fontawesome.com License - https://fontawesome.com/license (Commercial License) Copyright 2024 Fonticons, Inc. --><path d="M480 96c0 35.3 28.7 64 64 64V96H480zm-32 0H128c0 53-43 96-96 96V320c53 0 96 43 96 96H448c0-53 43-96 96-96V192c-53 0-96-43-96-96zM32 416H96c0-35.3-28.7-64-64-64v64zm512-64c-35.3 0-64 28.7-64 64h64V352zM32 96v64c35.3 0 64-28.7 64-64H32zM0 64H32 544h32V96 416v32H544 32 0V416 96 64zM352 256a64 64 0 1 0 -128 0 64 64 0 1 0 128 0zm-160 0a96 96 0 1 1 192 0 96 96 0 1 1 -192 0z"/></svg>
